X:18137
T:Valse - Valse/Walzer/Waltz
C:
Z:abc transcription Simon Wascher
N:please mail errors to simon.wascher@chello.at
M:3/4
L:1/4
K:G
DGB|d^cd|ed>G|B3|
A>Bd|A/B/A/G/F/G/|1A/G/Ac|B2G:|2A/G/AB|G3||
|:DGB|d2e|c/d/c/B/A/B/|c2d|
B/c/B/A/G/A/|B2c|A/B/A/G/F/G/|A/G/A/B/c/d/|
e/d/^c/d/e/d/|1B2G:|2G3||


